X: 1828
T: Sûzidil Aranağme (Çiftesofyan)
C: ?
O: Turkey
F: http://compmusic.upf.edu/node/140
N: suzidil--aranagme--ciftesofyan--1--
N: makam= suzidil
N: form= aranagme
N: usul= ciftesofyan = 9/8
M: 9/8
L: 1/16
K: C ^1/4f ^g ^d 
Q: 1/4=216
%%MIDI tuningsystem comma53
.e4 z4 z4 z4 z2 | =f2 g2f2 g2.e4z4z2  | \
w:   |   | 
=f2g2 f2g2 e4 c'2b2 a2 | g3=fg2 a2gf ede4z2  | 
w:   |   | 
g2a4a2 abag a4 z2 | ^3/4c2 =d4 d2de dcd4z2  | \
w:   |   | 
B4 c4 B2{c}A2 G2A2 B2 | 
w:   | 
G2 =F2G2 A2GF EDE4z2  | .e4 z4 z4 z4 z2 | \
w:   |   | 
=f2 g2f2 g2.e4z4z2  | 
w:   | 
=f2g2 f2g2 e4 c'2b2 a2 | g3=fg2 a2gf ede4z2  | \
w:   |   | 
g2a4a2 abag a4 z2 | 
w:   | 
^3/4c2 =d4 d2de dcd4z2  | B4 c4 B2{c}A2 G2A2 B2 | \
w:   |   | 
G2 =F2G2 A2GF EDE4z2  | 
w:   | 
|


